!!!COM: Gabriel Faure/
!!!CNT: Francais
!!!TXO: Francais
!!!OTL: "Noe2l"
!!!LYR: Wilder
!!!OPR:
!!!OPS: Op. 43
!!!ONM: No. 1
!!!ENC: Emily Thomas
!!!YOR: CD Sheet Music French Art Songs, The Ultimate Collection
!!!YOR: CD Sheet Music, LLC 2003
!!!ODT: 1886/
!!NB: Vocal melody and text encoded.
**kern	**silbe
=1	=1
*clefG2	*
*k[b-]	*
*M4/4	*
*MM[Andante quasi Allegretto]	*
1r	.
=2	=2
2r	.
4r	.
8r	.
{8d	{La
=3	=3
4.f	nuit
8g	de-
4.a	-scend
8b-	du
=4	=4
8cc	haut
8a	des
4.dd	cieux,
8cc	Le
8b-	givre
8cc	au
=5	=5
8a	toit
8a	sus-
8f	-pend
8d	ses
4.g	fran-
8f	|
=6	=6
[2f	-ges.
4f]}	|}
4r	.
=7	=7
{4a	{Et,
8bn	dans
8cc	les
2dd	airs,
=8	=8
4a	le
8bn	vol
8cc	des
4ee	an-
8dd	-ges
8dd	e/-
=9	=9
4.cc#	-veille
8a	un
8bn	bruit
8a	mys-
8gn	-te/-
8fn	-ri-
=10	=10
[2a	-eux.
8a]}	|}
8r	.
{4a	{L'e/-
=11	=11
4.g	-toi-
8g	-le
8e	qui
8f	gui-
8f	-dait
8g	les
=12	=12
2cc	ma-
4e-}	-ges,}
8r	.
{8a-	{S'ar-
=13	=13
8g	-re^te
8cc	en-
4.cc	-fin
8b-	dans
8a-	les
8g	nu-
=14	=14
2ee-	-a-
4.ee-	-ges,
8ee-	Et
=14	=14
8dd-	fait
8cc	bril-
[2cc	-ler
8cc]	|
8cc	un
=15	=15
8bn	nim-
8a	-be
4.a	d'or
8a	Sur
8g	la
8f	chau-
=16	=16
4f	mie/re
4d	ou/
4.en	Je/-
8f	-sus
=17	=17
1f}	dort.}
=18	=18
2r	.
4r	.
8r	.
{8d	{A-
=19	=19
4.f	-lors,
8g	ou-
4.a	-vrant
8b-	ses
=20	=20
8cc	yeux
8a	di-
4.dd	-vins,
8cc	L'en-
8b-	-fant
8cc	cou-
=21	=21
8a	-che/,
8a	dans
8f	l'hum-
8d	-ble
4.g	cre\-
8f	|
=22	=22
[2f	-che,
4f]}	|}
4r	.
=23	=23
{4a	{De
8bn	son
8cc	ber-
2dd	-ceau
=24	=24
4a	de
8bn	pail-
8cc	-le
4ee	frai^-
8dd	-che,
8dd	sou-
=25	=25
4.cc#	-rit
8a	aux
8bn	no-
8a	-bles
8gn	pe/-
8fn	-le/-
=26	=26
[2a	-rins.
8a]}	|}
8r	.
{4a	{Eux,
=27	=27
8g	s'in-
8g	-cli-
4.b-	-nant,
8g	lui
8f	di-
8e	-sent:
=28	=28
2cc	Si-
4e-}	-re,}
8r	.
{8a-	{Re-
=29	=29
8g	-c5ois
8cc	l'en-
4cc	-cens,
4b-	l'or
8a-	et
8g	la
=30	=30
2ee-	myr-
4.ee-}	-rhe,}
{8ee-	{Et
=30	=30
8dd-	lais-
8cc	-se-
[2cc	-nous,
8cc]	|
8cc	o^
=31	=31
8bn	doux
8a	je-
4.a	-sus,
8a	bai-
8g	-ser
8f	le
=32	=32
4f	bout
4d	de
4.e	tes
8f	pieds
=33	=33
1f}	nus.}
=34	=34
2r	.
4r	.
8r	.
{8c	{Comme
=35	=35
4.e-	eux,
8g	o^
4b-	peuple,
4d	in-
=36	=36
8cc	-cli-
8a	-ne-
2cc}	-toi,}
8r	.
{8c	{I-
=37	=37
4.e-	-mi-
8g	-te
8b-	leur
8b-	pi-
8cc	-eux
8dd	ex-
=38	=38
2cc	-em-
4cc}	-ple,}
4r	.
=39	=39
{4cc	{Car
8b-	cette
8a	e/-
8dd	-ta-
8cc	-ble,
8b-	c'est
8a	un
=40	=40
2g	tem-
4g}	-ple,}
8r	.
{8a	{Et
=41	=41
8a	cet
8d	en-
8f	-fant
8a	se-
4.cc	-ra
8cc	ton
=42	=42
[1ff	roi!
=43	=43
4ff]}	|}
4r	.
2r	.
==	==
*-	*-
